X:003
T:Ballygawley Jig*
B:NFID.230c ("untitled jig")
003ballyg
S:PT
L:1/8
M:6/8
R:jig
Q:320
K:D
AG|: FAD FAD|fed cAG|EG=C EGC|=cBd cAG|
FAD FAD|fed cAG|EFG BAG|1 F<AD D2E:|2 F<AD D2||
g|fed ceA|ceA cBA|fed fed|cec d2e|
fed ceA|ceA cBA|EFG BAG|1 FAD D2:|2 FAD D3|]

%%%

